X: 7483
T:la Musga\~na tune 1
O:Spain
M:4/4
A:Galicia
K:Dm
G AB|\
c2 A(B B)c BA|G2 A(F F)(D D)E/F/|\
G2 A(B B)G A2|G2 F/E/(F F)D A2|
G2 F/E/(F F)D AF|(D4 D)D EF|\
G2 E(F F)(D D)E/F/|D4 z::
D EF|\
G2 F/E/(D D)D EF|G2 F/E/(D D)D EF|\
G2 A(B B)G A2|
G2 F/E/(F F)D A2|\
G2 F/E/(F F)D AF|(D4 D):|
